images/survey-3.svg

<svg width="127" height="135" viewBox="0 0 127 135" fill="none" xmlns="http://www.w3.org/2000/svg">
<g clip-path="url(#clip0)">
<path d="M42.8 13.8C42.8 21.4 36.6 27.6 29 27.6C21.4 27.6 15.2 21.4 15.2 13.8C15.1 6.2 21.3 0 29 0C36.7 0 42.8 6.2 42.8 13.8Z" fill="#563A5F"/>
<path d="M57.7 100.4L50.1 80.8001C53.4 77.9001 55.5 73.8001 55.5 69.1001V46.7001C55.5 38.1001 48.5 31.1001 39.9 31.1001H17.9C9.3 31.1001 2.3 38.1001 2.3 46.7001V69.1001C2.3 73.8001 4.4 78.0001 7.7 80.8001L0 100.4H13.9V127.7C13.9 131.6 16.9 134.9 20.7 135.1C24.7 135.2 28 132 28 128V100.4H30V127.7C30 131.6 33 134.9 36.8 135.1C40.8 135.2 44.1 132 44.1 128V100.4H57.7ZM45.1 47.1001C45.6 47.1001 46.1 47.5001 46.1 48.1001V70.4001L44.1 65.4001V48.1001C44.1 47.5001 44.5 47.1001 45.1 47.1001ZM11.9 69.9001V48.1001C11.9 47.6001 12.3 47.1001 12.9 47.1001C13.4 47.1001 13.9 47.5001 13.9 48.1001V64.9001L11.9 69.9001Z" fill="#563A5F"/>
</g>
<mask id="mask0" mask-type="alpha" maskUnits="userSpaceOnUse" x="73" y="0" width="54" height="135">
<g clip-path="url(#clip1)">
<path d="M110.6 31.1001H88.6C80 31.1001 73 38.1001 73 46.7001V69.1001C73 74.9001 76.1 79.9001 80.7 82.6001C81.5 83.1001 82.6 82.5001 82.6 81.5001V48.1001C82.6 47.6001 83 47.1001 83.6 47.1001C84.1 47.1001 84.6 47.5001 84.6 48.1001V127.7C84.6 131.6 87.6 134.9 91.4 135.1C95.4 135.2 98.7 132 98.7 128V87.6001C98.7 87.1001 99.1 86.6001 99.7 86.6001C100.2 86.6001 100.7 87.0001 100.7 87.6001V127.7C100.7 131.6 103.7 134.9 107.5 135.1C111.5 135.2 114.8 132 114.8 128V48.1001C114.8 47.6001 115.2 47.1001 115.8 47.1001C116.3 47.1001 116.8 47.5001 116.8 48.1001V81.4001C116.8 82.4001 117.9 83.0001 118.7 82.5001C123.2 79.8001 126.2 74.8001 126.2 69.1001V46.7001C126.2 38.1001 119.2 31.1001 110.6 31.1001Z" fill="#563A5F"/>
<path d="M113.5 13.8C113.5 21.4 107.3 27.6 99.7 27.6C92.1 27.6 85.9 21.4 85.9 13.8C85.8 6.2 92 0 99.7 0C107.3 0 113.5 6.2 113.5 13.8Z" fill="#563A5F"/>
</g>
</mask>
<g mask="url(#mask0)">
<rect x="-78" width="164" height="135" fill="#563A5F"/>
</g>
<defs>
<clipPath id="clip0">
<rect width="57.7" height="135" fill="white"/>
</clipPath>
<clipPath id="clip1">
<rect width="53.2" height="135" fill="white" transform="translate(73)"/>
</clipPath>
</defs>
</svg>

<svg fill="none" height="135" viewBox="0 0 127 135" width="127" xmlns="http://www.w3.org/2000/svg" xmlns:xlink="http://www.w3.org/1999/xlink"><clipPath id="a"><path d="m0 0h57.7v135h-57.7z"/></clipPath><clipPath id="b"><path d="m73 0h53.2v135h-53.2z"/></clipPath><mask id="c" height="135" maskUnits="userSpaceOnUse" width="54" x="73" y="0"><g clip-path="url(#b)" fill="none"><path d="m110.6 31.1001h-22c-8.6 0-15.6 7-15.6 15.6v22.4c0 5.8 3.1 10.8 7.7 13.5.8.5 1.9-.1 1.9-1.1v-33.4c0-.5.4-1 1-1 .5 0 1 .4 1 1v79.5999c0 3.9 3 7.2 6.8 7.4 4 .1 7.3-3.1 7.3-7.1v-40.3999c0-.5.4-1 1-1 .5 0 1 .4 1 1v40.0999c0 3.9 3 7.2 6.8 7.4 4 .1 7.3-3.1 7.3-7.1v-79.8999c0-.5.4-1 1-1 .5 0 1 .4 1 1v33.3c0 1 1.1 1.6 1.9 1.1 4.5-2.7 7.5-7.7 7.5-13.4v-22.4c0-8.6-7-15.6-15.6-15.6z" fill="#563a5f"/><path d="m113.5 13.8c0 7.6-6.2 13.8-13.8 13.8s-13.8-6.2-13.8-13.8c-.1-7.6 6.1-13.8 13.8-13.8 7.6 0 13.8 6.2 13.8 13.8z" fill="#563a5f"/></g></mask><g clip-path="url(#a)" fill="#563a5f"><path d="m42.8 13.8c0 7.6-6.2 13.8-13.8 13.8s-13.8-6.2-13.8-13.8c-.1-7.6 6.1-13.8 13.8-13.8s13.8 6.2 13.8 13.8z"/><path d="m57.7 100.4-7.6-19.5999c3.3-2.9 5.4-7 5.4-11.7v-22.4c0-8.6-7-15.6-15.6-15.6h-22c-8.6 0-15.6 7-15.6 15.6v22.4c0 4.7 2.1 8.9 5.4 11.7l-7.7 19.5999h13.9v27.3c0 3.9 3 7.2 6.8 7.4 4 .1 7.3-3.1 7.3-7.1v-27.6h2v27.3c0 3.9 3 7.2 6.8 7.4 4 .1 7.3-3.1 7.3-7.1v-27.6zm-12.6-53.2999c.5 0 1 .4 1 1v22.3l-2-5v-17.3c0-.6.4-1 1-1zm-33.2 22.8v-21.8c0-.5.4-1 1-1 .5 0 1 .4 1 1v16.8z"/></g><g mask="url(#c)"><path d="m-78 0h164v135h-164z" fill="#563a5f"/></g></svg>
